svg/document-attach.svg

<?xml version="1.0" encoding="UTF-8" standalone="no"?>
<svg
   xmlns:dc="http://purl.org/dc/elements/1.1/"
   xmlns:cc="http://creativecommons.org/ns#"
   xmlns:rdf="http://www.w3.org/1999/02/22-rdf-syntax-ns#"
   xmlns:svg="http://www.w3.org/2000/svg"
   xmlns="http://www.w3.org/2000/svg"
   xmlns:sodipodi="http://sodipodi.sourceforge.net/DTD/sodipodi-0.dtd"
   xmlns:inkscape="http://www.inkscape.org/namespaces/inkscape"
   class="ionicon"
   viewBox="0 0 512 512"
   version="1.1"
   id="svg8"
   sodipodi:docname="document-attach.svg"
   inkscape:version="1.0.2 (e86c8708, 2021-01-15)">
  <metadata
     id="metadata14">
    <rdf:RDF>
      <cc:Work
         rdf:about="">
        <dc:format>image/svg+xml</dc:format>
        <dc:type
           rdf:resource="http://purl.org/dc/dcmitype/StillImage" />
      </cc:Work>
    </rdf:RDF>
  </metadata>
  <defs
     id="defs12" />
  <sodipodi:namedview
     pagecolor="#ffffff"
     bordercolor="#666666"
     borderopacity="1"
     objecttolerance="10"
     gridtolerance="10"
     guidetolerance="10"
     inkscape:pageopacity="0"
     inkscape:pageshadow="2"
     inkscape:window-width="689"
     inkscape:window-height="480"
     id="namedview10"
     showgrid="false"
     inkscape:zoom="1.3027344"
     inkscape:cx="256"
     inkscape:cy="256"
     inkscape:window-x="44"
     inkscape:window-y="25"
     inkscape:window-maximized="0"
     inkscape:current-layer="svg8" />
  <title
     id="title2">Document Attach</title>
  <path
     style="color:#000000;font-style:normal;font-variant:normal;font-weight:normal;font-stretch:normal;font-size:medium;line-height:normal;font-family:sans-serif;font-variant-ligatures:normal;font-variant-position:normal;font-variant-caps:normal;font-variant-numeric:normal;font-variant-alternates:normal;font-variant-east-asian:normal;font-feature-settings:normal;font-variation-settings:normal;text-indent:0;text-align:start;text-decoration:none;text-decoration-line:none;text-decoration-style:solid;text-decoration-color:#000000;letter-spacing:normal;word-spacing:normal;text-transform:none;writing-mode:lr-tb;direction:ltr;text-orientation:mixed;dominant-baseline:auto;baseline-shift:baseline;text-anchor:start;white-space:normal;shape-padding:0;shape-margin:0;inline-size:0;clip-rule:nonzero;display:inline;overflow:visible;visibility:visible;isolation:auto;mix-blend-mode:normal;color-interpolation:sRGB;color-interpolation-filters:linearRGB;solid-color:#000000;solid-opacity:1;vector-effect:none;fill:#000000;fill-opacity:1;fill-rule:nonzero;stroke-width:1;stroke-linecap:butt;stroke-linejoin:miter;stroke-miterlimit:4;stroke-dasharray:none;stroke-dashoffset:0;stroke-opacity:1;color-rendering:auto;image-rendering:auto;shape-rendering:auto;text-rendering:auto;enable-background:accumulate;stop-color:#000000;stop-opacity:1;stroke:none;opacity:1"
     d="M 460,240 H 320 c -26.50967,0 -48,-21.49033 -48,-48 V 52 c 0,-2.209139 -1.79086,-4 -4,-4 h -53.25 c -1.86756,-3.45863 -4.04303,-6.74191 -6.5,-9.81 C 196.72,23.88 179.59,16 160,16 122.32,16 96,45.61 96,88 v 144 c 0,25 20.34,40 40,40 22.19105,0.24249 40.24249,-17.80895 40,-40 V 80 c 0,-8.836562 -7.16344,-15.999993 -16,-15.999993 -8.83656,0 -16,7.163431 -16,15.999993 v 152 c 0.14693,4.47773 -3.52227,8.14693 -8,8 -2.23,0 -8,-1.44 -8,-8 V 88 c 0,-19.34 8.41,-40 32,-40 29.69,0 32,30.15 32,39.38 v 138.75 c 0,17.45 -5.47,33.23 -15.41,44.46 C 166.5,282 152.47,288 136,288 119.53,288 105.5,282 95.41,270.59 85.47,259.36 80,243.58 80,226.13 V 144 c 0,-8.83656 -7.163444,-15.99999 -16,-15.99999 -8.836556,0 -16,7.16343 -16,15.99999 v 82.13 c 0,51.51 33.19,89.63 80,93.53 V 432 c 0,35.34622 28.65378,64 64,64 h 208 c 35.34622,0 64,-28.65378 64,-64 V 244 c 0,-2.20914 -1.79086,-4 -4,-4 z"
     id="path4" />
  <path
     style="color:#000000;font-style:normal;font-variant:normal;font-weight:normal;font-stretch:normal;font-size:medium;line-height:normal;font-family:sans-serif;font-variant-ligatures:normal;font-variant-position:normal;font-variant-caps:normal;font-variant-numeric:normal;font-variant-alternates:normal;font-variant-east-asian:normal;font-feature-settings:normal;font-variation-settings:normal;text-indent:0;text-align:start;text-decoration:none;text-decoration-line:none;text-decoration-style:solid;text-decoration-color:#000000;letter-spacing:normal;word-spacing:normal;text-transform:none;writing-mode:lr-tb;direction:ltr;text-orientation:mixed;dominant-baseline:auto;baseline-shift:baseline;text-anchor:start;white-space:normal;shape-padding:0;shape-margin:0;inline-size:0;clip-rule:nonzero;display:inline;overflow:visible;visibility:visible;isolation:auto;mix-blend-mode:normal;color-interpolation:sRGB;color-interpolation-filters:linearRGB;solid-color:#000000;solid-opacity:1;vector-effect:none;fill:#000000;fill-opacity:1;fill-rule:nonzero;stroke-width:1;stroke-linecap:butt;stroke-linejoin:miter;stroke-miterlimit:4;stroke-dasharray:none;stroke-dashoffset:0;stroke-opacity:1;color-rendering:auto;image-rendering:auto;shape-rendering:auto;text-rendering:auto;enable-background:accumulate;stop-color:#000000;stop-opacity:1;stroke:none;opacity:1"
     d="m 320,208 h 129.81 c 1.7749,-0.007 2.66133,-2.15123 1.41,-3.41 L 307.41,60.78 c -1.25877,-1.251329 -3.40255,-0.364897 -3.41,1.41 V 192 c 0,8.83656 7.16344,16 16,16 z"
     id="path6" />
</svg>

<svg xmlns="http://www.w3.org/2000/svg" width="512" height="512" viewBox="0 0 512 512"><title>ionicons-v5-l</title><path d="M460,240H320a48,48,0,0,1-48-48V52a4,4,0,0,0-4-4H214.75a65.42,65.42,0,0,0-6.5-9.81C196.72,23.88,179.59,16,160,16c-37.68,0-64,29.61-64,72V232c0,25,20.34,40,40,40a39.57,39.57,0,0,0,40-40V80a16,16,0,0,0-32,0V232a7.75,7.75,0,0,1-8,8c-2.23,0-8-1.44-8-8V88c0-19.34,8.41-40,32-40,29.69,0,32,30.15,32,39.38V226.13c0,17.45-5.47,33.23-15.41,44.46C166.5,282,152.47,288,136,288s-30.5-6-40.59-17.41C85.47,259.36,80,243.58,80,226.13V144a16,16,0,0,0-32,0v82.13c0,51.51,33.19,89.63,80,93.53V432a64,64,0,0,0,64,64H400a64,64,0,0,0,64-64V244A4,4,0,0,0,460,240Z"/><path d="M320,208H449.81a2,2,0,0,0,1.41-3.41L307.41,60.78A2,2,0,0,0,304,62.19V192A16,16,0,0,0,320,208Z"/></svg>
